icons/desktop/20/barbell-20.svg

<svg width="20" height="20" viewBox="0 0 20 20" fill="none" xmlns="http://www.w3.org/2000/svg">
<path fill-rule="evenodd" clip-rule="evenodd" d="M5.78809 4C6.6322 4.00005 7.38722 4.56822 7.60254 5.3916L7.63867 5.55957C7.85306 6.86449 7.95243 8.06496 7.98633 9.125H11.8887C11.9226 8.06496 12.0219 6.86547 12.2363 5.56055C12.3872 4.6476 13.1866 4.00005 14.0869 4H15.1426C16.4274 4 17.5578 4.93443 17.7393 6.23926C17.8462 7.00887 17.9285 7.84879 17.9697 8.75H18.75C19.44 8.75 20 9.31 20 10C20 10.69 19.44 11.25 18.75 11.25H17.9707C17.9357 12.0152 17.8652 12.847 17.7432 13.7334C17.5641 15.0334 16.4448 15.999 15.1387 15.999H14.0996C14.0954 15.9991 14.0911 16 14.0869 16C13.1587 15.9999 12.3819 15.326 12.2334 14.4219C12.0629 13.3801 11.9317 12.1889 11.8896 10.875H7.98535C7.94332 12.1889 7.8121 13.3791 7.6416 14.4209C7.49308 15.325 6.71628 15.9999 5.78809 16C5.78388 16 5.77959 15.9991 5.77539 15.999H4.86133C3.55522 15.999 2.43589 15.0334 2.25684 13.7334C2.1348 12.847 2.0643 12.0152 2.0293 11.25H1.25C0.56 11.25 0 10.69 0 10C0 9.31 0.56 8.75 1.25 8.75H2.03027C2.07146 7.84879 2.15375 7.00887 2.26074 6.23926C2.44216 4.93443 3.57261 4 4.85742 4H5.78809ZM4.85742 5.75C4.41438 5.75 4.05092 6.07153 3.99414 6.48047C3.84917 7.52333 3.75098 8.70499 3.75098 10C3.75098 11.0082 3.81138 12.1878 3.99121 13.4941L4.02734 13.6504C4.14443 13.9993 4.47836 14.249 4.86133 14.249H5.79199C5.85018 14.2472 5.90285 14.206 5.91406 14.1377C6.10835 12.9504 6.25098 11.5574 6.25098 10C6.25098 8.82328 6.16934 7.41521 5.91113 5.84375C5.90724 5.82294 5.89586 5.80028 5.87305 5.78125C5.84898 5.76122 5.81906 5.75003 5.78809 5.75H4.85742ZM14.0869 5.75C14.0559 5.75003 14.026 5.76122 14.002 5.78125C13.9788 5.80056 13.9676 5.82265 13.9639 5.84375C13.7057 7.41521 13.624 8.82328 13.624 10C13.624 11.5574 13.7666 12.9504 13.9609 14.1377L13.9766 14.1855C13.9989 14.2251 14.0392 14.2473 14.082 14.249H15.1387C15.5766 14.249 15.9498 13.9221 16.0088 13.4941C16.1886 12.1878 16.249 11.0082 16.249 10C16.249 8.70499 16.1518 7.52334 16.0068 6.48047C15.9501 6.07153 15.5856 5.75 15.1426 5.75H14.0869Z" fill="black"/>
</svg>

<!-- This Source Code Form is subject to the terms of the Mozilla Public
   - License, v. 2.0. If a copy of the MPL was not distributed with this
   - file, You can obtain one at http://mozilla.org/MPL/2.0/. -->
<svg xmlns="http://www.w3.org/2000/svg" width="20" height="20" fill="context-fill" fill-opacity="context-fill-opacity" viewBox="0 0 20 20">
    <path fill-rule="evenodd" d="M5.788 4c.844 0 1.6.568 1.815 1.392l.036.168c.214 1.304.313 2.505.347 3.565h3.903c.034-1.06.133-2.26.347-3.564.151-.913.95-1.561 1.85-1.561h1.057c1.284 0 2.415.934 2.596 2.24.107.769.19 1.609.23 2.51h.781a1.25 1.25 0 0 1 0 2.5h-.78a27 27 0 0 1-.227 2.483A2.63 2.63 0 0 1 15.14 16h-1.04l-.012.001a1.88 1.88 0 0 1-1.854-1.578 27 27 0 0 1-.343-3.547H7.985a27 27 0 0 1-.343 3.546A1.88 1.88 0 0 1 5.788 16l-.013-.001h-.914a2.63 2.63 0 0 1-2.604-2.266 27 27 0 0 1-.228-2.483H1.25a1.25 1.25 0 0 1 0-2.5h.78a27 27 0 0 1 .23-2.51C2.443 4.933 3.574 4 4.858 4zm-.93 1.75a.864.864 0 0 0-.864.73 25.6 25.6 0 0 0-.003 7.014l.036.156a.88.88 0 0 0 .834.599h.931a.13.13 0 0 0 .122-.111 25.6 25.6 0 0 0-.003-8.294.1.1 0 0 0-.038-.063.13.13 0 0 0-.085-.031zm9.229 0a.13.13 0 0 0-.085.031.1.1 0 0 0-.038.063 25.6 25.6 0 0 0-.003 8.294l.016.047c.022.04.062.062.105.064h1.057a.88.88 0 0 0 .87-.755 25.6 25.6 0 0 0-.002-7.014.865.865 0 0 0-.864-.73z" clip-rule="evenodd" />
</svg>
